svg/600/outlined/nest_remote_comfort_sensor-fill.svg

<svg xmlns="http://www.w3.org/2000/svg" width="48" height="48" viewBox="0 -960 960 960"><path d="M480-93.999q-66.957 0-113.283-46.609-46.326-46.608-46.326-113.565 0-66.392 46.326-113Q413.043-413.782 480-413.782t113.283 46.609q46.326 46.608 46.326 113 0 66.957-46.326 113.565Q546.957-93.998 480-93.998Zm-371.001-543.74-52.478-50.609q82.261-80.522 189.065-125.979Q352.391-859.784 480-859.784q127.609 0 234.414 45.175 106.804 45.174 189.065 125.696l-52.478 51.174q-73.131-70.957-166.24-109.718Q591.652-786.218 480-786.218t-204.761 39.044q-93.109 39.044-166.24 109.435Zm588.653 158.74q-40.739-36-95.869-60.392Q546.652-563.782 480-563.782t-121.566 24.674q-54.913 24.674-95.521 60.109l-53.044-52.175q50.435-46.696 120.391-75.87 69.957-29.174 149.74-29.174 79.783 0 149.24 29.174 69.456 29.174 120.456 75.87l-52.044 52.175Z"/></svg>

<svg xmlns="http://www.w3.org/2000/svg" width="48" height="48" viewBox="0 -960 960 960"><path d="M480-94q-66.96 0-113.28-46.61-46.33-46.61-46.33-113.56 0-66.39 46.33-113 46.32-46.61 113.28-46.61 66.96 0 113.28 46.61 46.33 46.61 46.33 113 0 66.95-46.33 113.56Q546.96-94 480-94ZM109-637.74l-52.48-50.61q82.26-80.52 189.07-125.98 106.8-45.45 234.41-45.45t234.41 45.17q106.81 45.17 189.07 125.7L851-637.74q-73.13-70.96-166.24-109.72-93.11-38.76-204.76-38.76-111.65 0-204.76 39.05Q182.13-708.13 109-637.74ZM697.65-479q-40.74-36-95.87-60.39T480-563.78q-66.65 0-121.57 24.67-54.91 24.68-95.52 60.11l-53.04-52.17q50.43-46.7 120.39-75.87 69.96-29.18 149.74-29.18 79.78 0 149.24 29.18 69.46 29.17 120.46 75.87L697.65-479Z"/></svg>
